svgs/payconiq.svg

<svg xmlns="http://www.w3.org/2000/svg" viewBox="0 0 192 192"><path d="M41.455 165.091v-10.909h54.047l4.672-6.127c5.046-6.616 12.171-12.05 18.734-14.287 2.266-.772 10.312-1.404 17.879-1.404h13.758v21.818H98.151l-9.257 9.478C77.761 175.058 75.216 176 55.556 176H41.455ZM18.424 91.827V79.169l6.362.049c9.801.076 14.136 3.272 14.206 10.473.053 5.506-4.504 9.945-10.21 9.945-3.489 0-4.297.456-4.297 2.425 0 1.777-.808 2.424-3.03 2.424h-3.031Zm13.206.084c2.025-2.439.311-5.608-3.032-5.608-2.231 0-2.901.653-2.901 2.828 0 4.569 3.203 6.07 5.933 2.78Zm35.279 11.363c0-.755.536-2.374 1.191-3.597.894-1.672.292-4.205-2.425-10.197-4.399-9.702-4.436-10.45-.525-10.45 2.455 0 3.554 1.037 5.348 5.044l2.258 5.043 1.511-5.043c1.312-4.379 1.965-5.044 4.955-5.044 1.895 0 3.428.409 3.407.909-.02.5-2.078 6.091-4.573 12.425-4.056 10.296-4.886 11.555-7.842 11.898-1.878.218-3.305-.209-3.305-.988Zm100.606-1.213c0-1.919-.821-2.433-3.939-2.463-6.762-.066-11.052-5.566-9.732-12.475.997-5.216 5.475-7.92 13.118-7.92h6.614v25.282h-3.031c-2.222 0-3.03-.647-3.03-2.424Zm-1.225-10.288c2.16-2.602.561-5.717-2.696-5.252-3.107.443-4.409 4.427-1.956 5.982 2.273 1.44 2.938 1.336 4.652-.73Zm-123.535 4.67c-3.123-3.97-3.235-10.192-.25-13.877 1.848-2.283 3.732-2.888 10.303-3.306l8.04-.512v20.888h-7.79c-6.973 0-8.055-.335-10.303-3.193Zm9.425-3.94c2.453-1.555 1.151-5.539-1.955-5.982-3.258-.465-4.857 2.65-2.697 5.252 1.714 2.066 2.379 2.17 4.652.73Zm32.942 4.74c-3.328-3.328-4.177-7.729-2.261-11.716 3.146-6.545 10.086-8.091 16.169-3.601 3.351 2.473.821 4.891-5.172 4.944-3.758.032-4.59.502-4.913 2.772-.446 3.144 2.611 4.901 5.032 2.892 1.159-.963 2.309-.804 4.304.593 2.587 1.812 2.619 2.02.638 4.208-2.847 3.146-10.611 3.094-13.797-.092Zm19.453-.541c-3.995-4.252-3.777-11.256.462-14.903 6.924-5.955 16.418-1.402 16.418 7.874 0 9.137-10.71 13.596-16.88 7.029Zm9.594-4.929c2.16-2.602.561-5.717-2.697-5.252-3.106.443-4.408 4.427-1.955 5.982 2.272 1.44 2.938 1.336 4.652-.73Zm9.71-2.37V79.169l6.129.048c8.995.069 12.03 3.091 12.916 12.857l.685 7.562h-3.741c-3.659 0-3.749-.14-4.108-6.363-.313-5.434-.72-6.364-2.79-6.364-2.07 0-2.478.93-2.791 6.364-.336 5.844-.609 6.363-3.333 6.363-2.914 0-2.967-.184-2.967-10.233Zm21.818-.07c0-10.181.036-10.303 3.03-10.303 2.995 0 3.031.122 3.031 10.303 0 10.182-.036 10.303-3.031 10.303-2.994 0-3.03-.121-3.03-10.303Zm-.521-13.548c-.988-2.575 2.135-5.81 4.669-4.837 1.052.403 1.913 2.114 1.913 3.802 0 2.428-.606 3.068-2.901 3.068-1.597 0-3.251-.914-3.681-2.033Zm-87.358-11.91c-10.27-3.633-17.454-15.769-15.813-26.713C43.719 25.729 54.89 16 66.303 16c9.821 0 20.991 7.809 23.081 16.135.45 1.792 1.091 3.259 1.425 3.259.334 0 5.5-3.592 11.48-7.981 5.981-4.39 12.872-8.816 15.314-9.836 6.449-2.695 16.327-1.416 22.573 2.922 14.707 10.212 13.382 33.839-2.358 42.06-3.417 1.784-7.063 2.525-12.351 2.51-6.365-.019-8.295-.577-12.727-3.682-2.93-2.052-6.593-6.178-8.341-9.393l-3.117-5.734-10.217 7.44C74.501 65.763 68.417 67.625 57.818 63.875Zm15.059-15.862c2.766-2.327 3.729-4.163 3.729-7.107 0-5.16-4.997-10.361-9.955-10.361-4.604 0-10.651 5.85-10.651 10.303 0 4.14 6.053 10.304 10.117 10.304 1.667 0 4.709-1.413 6.76-3.139Zm60.148.163c6.216-6.216 1.944-17.631-6.599-17.631-5.565 0-10.305 4.74-10.305 10.303 0 8.958 10.655 13.577 16.904 7.328Z" fill="#333"/></svg>

<svg
    xmlns="http://www.w3.org/2000/svg"
    viewBox="0 0 192 192"
    id="vector">
    <g id="group">
        <path
            id="path_6"
            d="M 41.455 165.091 L 41.455 154.182 L 95.502 154.182 L 100.174 148.055 C 105.22 141.439 112.345 136.005 118.908 133.768 C 121.174 132.996 129.22 132.364 136.787 132.364 L 150.545 132.364 L 150.545 154.182 L 98.151 154.182 L 88.894 163.66 C 77.761 175.058 75.216 176 55.556 176 L 41.455 176 Z M 18.424 91.827 L 18.424 79.169 L 24.786 79.218 C 34.587 79.294 38.922 82.49 38.992 89.691 C 39.045 95.197 34.488 99.636 28.782 99.636 C 25.293 99.636 24.485 100.092 24.485 102.061 C 24.485 103.838 23.677 104.485 21.455 104.485 L 18.424 104.485 Z M 31.63 91.911 C 33.655 89.472 31.941 86.303 28.598 86.303 C 26.367 86.303 25.697 86.956 25.697 89.131 C 25.697 93.7 28.9 95.201 31.63 91.911 Z M 66.909 103.274 C 66.909 102.519 67.445 100.9 68.1 99.677 C 68.994 98.005 68.392 95.472 65.675 89.48 C 61.276 79.778 61.239 79.03 65.15 79.03 C 67.605 79.03 68.704 80.067 70.498 84.074 L 72.756 89.117 L 74.267 84.074 C 75.579 79.695 76.232 79.03 79.222 79.03 C 81.117 79.03 82.65 79.439 82.629 79.939 C 82.609 80.439 80.551 86.03 78.056 92.364 C 74 102.66 73.17 103.919 70.214 104.262 C 68.336 104.48 66.909 104.053 66.909 103.274 Z M 167.515 102.061 C 167.515 100.142 166.694 99.628 163.576 99.598 C 156.814 99.532 152.524 94.032 153.844 87.123 C 154.841 81.907 159.319 79.203 166.962 79.203 L 173.576 79.203 L 173.576 104.485 L 170.545 104.485 C 168.323 104.485 167.515 103.838 167.515 102.061 Z M 166.29 91.773 C 168.45 89.171 166.851 86.056 163.594 86.521 C 160.487 86.964 159.185 90.948 161.638 92.503 C 163.911 93.943 164.576 93.839 166.29 91.773 Z M 42.755 96.443 C 39.632 92.473 39.52 86.251 42.505 82.566 C 44.353 80.283 46.237 79.678 52.808 79.26 L 60.848 78.748 L 60.848 99.636 L 53.058 99.636 C 46.085 99.636 45.003 99.301 42.755 96.443 Z M 52.18 92.503 C 54.633 90.948 53.331 86.964 50.225 86.521 C 46.967 86.056 45.368 89.171 47.528 91.773 C 49.242 93.839 49.907 93.943 52.18 92.503 Z M 85.122 97.243 C 81.794 93.915 80.945 89.514 82.861 85.527 C 86.007 78.982 92.947 77.436 99.03 81.926 C 102.381 84.399 99.851 86.817 93.858 86.87 C 90.1 86.902 89.268 87.372 88.945 89.642 C 88.499 92.786 91.556 94.543 93.977 92.534 C 95.136 91.571 96.286 91.73 98.281 93.127 C 100.868 94.939 100.9 95.147 98.919 97.335 C 96.072 100.481 88.308 100.429 85.122 97.243 Z M 104.575 96.702 C 100.58 92.45 100.798 85.446 105.037 81.799 C 111.961 75.844 121.455 80.397 121.455 89.673 C 121.455 98.81 110.745 103.269 104.575 96.702 Z M 114.169 91.773 C 116.329 89.171 114.73 86.056 111.472 86.521 C 108.366 86.964 107.064 90.948 109.517 92.503 C 111.789 93.943 112.455 93.839 114.169 91.773 Z M 123.879 89.403 L 123.879 79.169 L 130.008 79.217 C 139.003 79.286 142.038 82.308 142.924 92.074 L 143.609 99.636 L 139.868 99.636 C 136.209 99.636 136.119 99.496 135.76 93.273 C 135.447 87.839 135.04 86.909 132.97 86.909 C 130.9 86.909 130.492 87.839 130.179 93.273 C 129.843 99.117 129.57 99.636 126.846 99.636 C 123.932 99.636 123.879 99.452 123.879 89.403 Z M 145.697 89.333 C 145.697 79.152 145.733 79.03 148.727 79.03 C 151.722 79.03 151.758 79.152 151.758 89.333 C 151.758 99.515 151.722 99.636 148.727 99.636 C 145.733 99.636 145.697 99.515 145.697 89.333 Z M 145.176 75.785 C 144.188 73.21 147.311 69.975 149.845 70.948 C 150.897 71.351 151.758 73.062 151.758 74.75 C 151.758 77.178 151.152 77.818 148.857 77.818 C 147.26 77.818 145.606 76.904 145.176 75.785 Z M 57.818 63.875 C 47.548 60.242 40.364 48.106 42.005 37.162 C 43.719 25.729 54.89 16 66.303 16 C 76.124 16 87.294 23.809 89.384 32.135 C 89.834 33.927 90.475 35.394 90.809 35.394 C 91.143 35.394 96.309 31.802 102.289 27.413 C 108.27 23.023 115.161 18.597 117.603 17.577 C 124.052 14.882 133.93 16.161 140.176 20.499 C 154.883 30.711 153.558 54.338 137.818 62.559 C 134.401 64.343 130.755 65.084 125.467 65.069 C 119.102 65.05 117.172 64.492 112.74 61.387 C 109.81 59.335 106.147 55.209 104.399 51.994 L 101.282 46.26 L 91.065 53.7 C 74.501 65.763 68.417 67.625 57.818 63.875 Z M 72.877 48.013 C 75.643 45.686 76.606 43.85 76.606 40.906 C 76.606 35.746 71.609 30.545 66.651 30.545 C 62.047 30.545 56 36.395 56 40.848 C 56 44.988 62.053 51.152 66.117 51.152 C 67.784 51.152 70.826 49.739 72.877 48.013 Z M 133.025 48.176 C 139.241 41.96 134.969 30.545 126.426 30.545 C 120.861 30.545 116.121 35.285 116.121 40.848 C 116.121 49.806 126.776 54.425 133.025 48.176 Z"
            fill="#333333"
            stroke-width="1"/>
    </g>
</svg>
